app/dist/common/images/exceet-sa.svg

<svg height="18" viewBox="0 0 18 18" width="18" xmlns="http://www.w3.org/2000/svg"><path d="m0 0h18v18h-18z" fill="#f0f3fa"/><path d="m4 4h8v8h-3v-1h2v-6h-6v6h1v1h-2z" fill="#82b600"/><path d="m7 7.7c0-.39.31-.7.7-.7h2.3v1h-2v5h5v-6h.3c.39 0 .7.31.7.7v5.6a.7.7 0 0 1 -.7.7h-5.6a.7.7 0 0 1 -.7-.7z" fill="#c7d125"/></svg>

<!-- by TradingView --><svg width="18" height="18" viewBox="0 0 18 18" xmlns="http://www.w3.org/2000/svg"><path fill="#F0F3FA" d="M0 0h18v18H0z"/><path d="M4 4h8v8H9v-1h2V5H5v6h1v1H4V4Z" fill="#82B600"/><path d="M7 7.7c0-.39.31-.7.7-.7H10v1H8v5h5V7h.3c.39 0 .7.31.7.7v5.6a.7.7 0 0 1-.7.7H7.7a.7.7 0 0 1-.7-.7V7.7Z" fill="#C7D125"/></svg>
